X:1
T:Witches' Dance
T:Witches' Dance
T:Op. 4, No. 2
T:Theodor Kullak
T:Public Domain (PianoXML Typeset)
T:Public Domain (PianoXML Typeset)
C:Theodor Kullak
Z:Public Domain (PianoXML Typeset)
%%score { 1 | 2 }
L:1/8
Q:1/4=100
M:3/8
K:C
V:1 treble nm="Piano" snm="Pno."
V:2 bass 
V:1
"^Allegro animato" (!1!A,/B,/C/!1!D/E/F/ | .!2!E).A,.!5!A | .!3!F.A,.A | .!2!E(C/D/.E) | %4
 (!1!A,/B,/C/!1!D/E/F/ | .!2!E).B,.!4!G | .!3!^F.B,.!5!B | .!2!E z2 | (!1!A,/B,/C/!1!D/E/F/ | %9
 .E).A,.A | .F.A,.A | .!2!E(!1!C/D/.E) | (!1!A,/B,/C/!1!D/E/F/ | .E).G,.G | .!2!D.G,.G | %15
 .C z .!2!g |!f! (!^!!1!!3![^da]!4!b/a/b/a/ | .!2!g).e.c' | .!3!a.^d.c' | .!2!g(g/e/.g) | %20
 (!^![^da]b/a/b/a/ | .g).e.c' | .d.G.g | .!1!c z .!2!g |!f! (!^![^da]b/a/b/a/ | %25
"_cresc." .!2!^g).e.g | .!4!b.!2!^g.!3!b |!ff! (!^!e'e)!p! (!3!b | !>!e'.e) (!3!B | %29
 !>!e.E)[K:bass] (!3!B, | !>!EE,) z |!>(! z3!>)! |[K:treble]!pp!"^a tempo" (A,/B,/C/D/E/F/ | %33
 .E).A,.A | .!3!F.A,.A | .!2!E(!1!C/D/.E) | (A,/B,/C/D/E/F/ | .!2!E).B,.!4!G | .!3!^F.B,.!5!B | %39
 .!2!E z z |!p! (A,/B,/C/D/E/F/ | .E).A,.A | .!3!F.A,.A | .!2!E(!1!C/D/.E) | %44
!mf! !2!_D(D/!4!E/!1!C/E/ | !^!_D/E/D/E/!1!C/!3!E/ | .!4!F)(!3!F/G/.A) | z .[CA].[B,^G] | %48
!p!!<(! .[CA] z z!<)! |[K:bass]!sfz!!>(! (!^![^D,C]2 A,!>)! |!<(! [E,C]2) z!<)! | %51
!sfz!!>(! (!^![^D,C]2 !3!A,!>)! | [E,C]) z/"_dim." (!2!A,/B,/C/) | z (!1!A,/B,/C/D/ | .E).A,.A | %55
!pp! z3 |] %56
V:2
!p! .[A,,E,] z z | .[A,,E,] z z | .[A,,F,] z z | .[A,,E,] z z | .[A,,E,] z z | .[B,,G,] z z | %6
 .[B,,^F,] z z | .E,.E,,.E, | .[A,,E,] z z | .[A,,E,] z z | .[A,,F,] z z | .[A,,E,] z z | %12
 .[F,,F,] z z | .[G,,E,] z z | .[G,,D,] z z | .C, z z |[K:treble] ((!^![C^D^FA]3 | .[CEG])) z z | %18
 [C^D^FA] z z | .[CEG] z z | ((((!^![C^D^FA]3 | .[CEG])))) z z | .[G,D] z z | .C.C z | %24
 ((!^![^D^FAc]3 | .[E^GB])) z .^G, | .B,.^G,.B, | .E z (([FA] | .[E^G])) z[K:bass] (([F,A,] | %29
 .[E,^G,])) z (([F,,A,,] | .[E,,^G,,])) z .E, |"^poco rit."[I:staff -1] .E,[I:staff +1].E,.E, | %32
 .[A,,E,] z z | .[A,,E,] z z | .[A,,F,] z z | .[A,,E,] z z | .[A,,E,] z z | .[B,,G,] z z | %38
 .[B,,^F,] z z | (E,E,,.E,) | .[A,,E,] z z | .[A,,E,] z z | .[A,,F,] z z | .[A,,E,] z z | %44
 (!^!_B,2 A, | !^!_B,3 | .[A,C]) z .F, |"^dim." .E, z z | (A,,,B,,,/C,,/D,,/E,,/ | !^!!2!F,,3) | %50
 (A,,,B,,,/C,,/D,,/E,,/ | !^!F,,3) | .A,, z z | .!2!E,, z z | .!3!C,, z z | .!5!A,,, z z |] %56

